X: 27177
T: Miss Monaghan
R: reel
M: 4/4
K: Dmajor
|:D2 (3FED FA A2|BcBA FABc|d2 dB Acde|fede fe e2|
D2 (3FED FA A2|BcBA FAAc|d2 dB AcdB|AFEG FD D2:|
|:faab afdf|gefd edBc|d2 dB ABde|fede fe e2|
fgab afdf|(3gag fd edBc|d2 dB ABde|fede fd d2:|

